X:120
T:Kill of the Ruglet
R:polka
Z:id:hn-polka-70
M:2/4
L:1/8
K:D
dA/B/ cA|BA FA|GB/d/ ed|dB AF|1 A2 AB:|2 d2 dA||
|:A2 A>B|cB AB|c/B/A/G/ AA|BA E>/ c/B/|AF FE|EF AB|AB cB|AB B/c/d/B/|AF GA||
====== T = 0.5, seed = 2 ======
<start>
